src/assets/dark/IconNetwork.svg

<svg width="24" height="24" viewBox="0 0 24 24" fill="none" xmlns="http://www.w3.org/2000/svg">
<rect width="24" height="24" rx="4" fill="#3D367D"/>
<g clip-path="url(#clip0)">
<path fill-rule="evenodd" clip-rule="evenodd" d="M11 3.00024C11.1979 2.9947 11.3897 3.08579 11.5025 3.24837L16.9041 11.0332C16.9924 11.1606 17.0214 11.317 16.9841 11.4654C16.9468 11.6137 16.8465 11.7408 16.707 11.8165L11.3055 14.7473C11.211 14.7985 11.1051 14.8227 11 14.8197C10.8948 14.8227 10.789 14.7985 10.6945 14.7473L5.293 11.8165C5.15354 11.7408 5.05325 11.6137 5.01592 11.4654C4.9786 11.317 5.00756 11.1606 5.09594 11.0332L10.4975 3.24837C10.6103 3.08579 10.8021 2.9947 11 3.00024ZM10.4015 5.39354L7.06714 10.1992L10.4015 8.9742V5.39354ZM10.4015 10.1583L6.93086 11.4333L10.4015 13.3164V10.1583ZM11.5985 13.3164L15.0691 11.4333L11.5985 10.1583V13.3164ZM11.5985 8.9742L14.9329 10.1992L11.5985 5.39354V8.9742ZM5.1545 12.8643C5.34179 12.6719 5.64567 12.631 5.88185 12.7664L11 15.7016L15.3125 13.3164C15.5487 13.181 15.208 15.8259 16 14.5C15.293 15.6836 16.4419 14.5342 16.2812 14.7473L11.5706 20.6167C11.5143 20.783 11.3767 20.918 11.1949 20.9735C11.1307 20.9931 11.0649 21.0016 11.0001 20.9998C10.9353 21.0016 10.8694 20.9931 10.8051 20.9735C10.6233 20.918 10.4856 20.783 10.4294 20.6167L5.10872 13.5606C4.94808 13.3476 4.9672 13.0567 5.1545 12.8643ZM11.5985 18.6831L14.3018 15.0981L11.5985 16.6484V18.6831ZM10.4015 16.6484V18.6831L7.69824 15.0981L10.4015 16.6484Z" fill="#E1E1E8" stroke="#E1E1E8" stroke-width="0.3" stroke-linejoin="round"/>
<path d="M9.58565 14.5414C9.46701 14.6546 9.39992 14.8116 9.4 14.9756C9.40008 15.1396 9.46732 15.2965 9.58607 15.4097L10.5232 16.3028C10.7551 16.5237 11.1195 16.5236 11.3513 16.3026C12.3224 15.3764 13.6159 14.8632 15 14.8632C16.3844 14.8632 17.678 15.3758 18.6491 16.3005C18.8808 16.5212 19.245 16.5211 19.4767 16.3003L20.4139 15.4072C20.5328 15.2939 20.6 15.1369 20.6 14.9727C20.6 14.8086 20.5327 14.6516 20.4138 14.5383C18.9634 13.1571 17.0381 12.4 15 12.4C12.96 12.4 11.0344 13.158 9.58565 14.5414ZM11.6175 16.4752C11.4986 16.5884 11.4314 16.7454 11.4314 16.9095C11.4314 17.0737 11.4986 17.2306 11.6175 17.3439L12.5547 18.237C12.7863 18.4577 13.1504 18.4579 13.3822 18.2373C13.8119 17.8285 14.3843 17.6 15 17.6C15.6183 17.6 16.1903 17.8282 16.6175 18.2353C16.8492 18.4562 17.2136 18.4562 17.4453 18.2354L18.3825 17.3422C18.5013 17.229 18.5686 17.072 18.5686 16.9079C18.5686 16.7437 18.5013 16.5868 18.3825 16.4735C17.4757 15.6094 16.2717 15.1368 15 15.1368C13.7278 15.1368 12.5257 15.6097 11.6175 16.4752ZM13.0745 19.7368C13.0745 20.7925 13.9644 21.6 15 21.6C16.0378 21.6 16.9255 20.792 16.9255 19.7368C16.9255 18.6806 16.0375 17.8737 15 17.8737C13.9647 17.8737 13.0745 18.6801 13.0745 19.7368Z" fill="#E1E1E8" stroke="#3D367D" stroke-width="1.2" stroke-linejoin="round"/>
</g>
<defs>
<clipPath id="clip0">
<rect width="20" height="22" fill="white" transform="translate(2 1)"/>
</clipPath>
</defs>
</svg>

<svg width="24" height="24" fill="none" xmlns="http://www.w3.org/2000/svg"><rect width="24" height="24" rx="4" fill="#3D367D"/><g clip-path="url(#clip0)" fill="#E1E1E8" stroke-linejoin="round"><path fill-rule="evenodd" clip-rule="evenodd" d="M11 3a.59.59 0 01.502.248l5.402 7.785a.53.53 0 01.08.432.556.556 0 01-.277.351l-5.402 2.931a.606.606 0 01-.305.073.606.606 0 01-.306-.073l-5.401-2.93a.556.556 0 01-.277-.352.53.53 0 01.08-.432l5.402-7.785A.59.59 0 0111 3zm-.598 2.394l-3.335 4.805 3.335-1.225v-3.58zm0 4.764L6.93 11.433l3.47 1.883v-3.158zm1.197 3.158l3.47-1.883-3.47-1.275v3.158zm0-4.342l3.334 1.225-3.335-4.805v3.58zm-6.445 3.89a.604.604 0 01.728-.098L11 15.702l4.313-2.386c.236-.135-.105 2.51.687 1.184-.707 1.184.442.034.281.247l-4.71 5.87a.568.568 0 01-.376.357A.609.609 0 0111 21a.61.61 0 01-.195-.026.567.567 0 01-.376-.357L5.11 13.56a.531.531 0 01.045-.697zm6.444 5.82l2.704-3.586-2.704 1.55v2.035zm-1.197-2.036v2.035l-2.703-3.585 2.704 1.55z" stroke="#E1E1E8" stroke-width=".3"/><path d="M9.586 14.541a.6.6 0 000 .869l.937.893a.6.6 0 00.828 0A5.251 5.251 0 0115 14.863c1.384 0 2.678.513 3.65 1.438a.6.6 0 00.827 0l.937-.894a.6.6 0 000-.869C18.964 13.158 17.038 12.4 15 12.4c-2.04 0-3.966.758-5.414 2.141zm2.031 1.934a.6.6 0 000 .869l.938.893a.6.6 0 00.827 0A2.33 2.33 0 0115 17.6c.618 0 1.19.228 1.617.635a.6.6 0 00.828 0l.938-.893a.6.6 0 000-.868A4.878 4.878 0 0015 15.137a4.875 4.875 0 00-3.383 1.338zm1.457 3.262c0 1.056.89 1.863 1.926 1.863 1.038 0 1.925-.808 1.925-1.863 0-1.056-.887-1.863-1.925-1.863-1.035 0-1.925.806-1.925 1.863z" stroke="#3D367D" stroke-width="1.2"/></g><defs><clipPath id="clip0"><path fill="#fff" transform="translate(2 1)" d="M0 0h20v22H0z"/></clipPath></defs></svg>
